X:4052
T:Der Jger in dem grnen Wald...
R:
O:
S:source
B:Frau Nachtigall (Straburg - 1928)
Z:<anamnese@caramail.com> -- http://anamnese.fr.st
N:p.102
M:C
L:1/4
Q:1/4=130
K:G
D | "G"G>FED | "C"E>D"G"B,D | GGA"D"d | "G"d2"Am"(c"D"d) |"G"B2z|: d/ d/ |"D"A/>c/ c/ c/ cd |
"G"Bddd/ d/ | "D"A/>c/ c/ c/ c d | "G"BddD | "G"(G>F) ED | "C"(E>D) "G"B, D | GG"D"Ad |\
 "G"d2 "Am"(c"D"d) | "G"B2 z :|
